X: 35185
T: Room For The Cuckolds
R: jig
M: 6/8
K: Gmajor
|:G2G D2D|EGe dBG|G2G DED|1 E2D G2D:|2 E2D G2 A||
|:B2G B2G|BGB A3|BAG EDE|1 AGF G2A:|2 AGF G2D||

